X:278
T: Klberkauf (40), S. 130
N: T0167
O: Luxemburg
S: Singendes Volk, Esch-Alzette 1937 posth.]
N: Rammeldingen, J.P. Gloden, 26.12.1932
R: Liebeslieder]
M: 2/4
L: 1/16
K: G
D2 | G2G2G2GG | G2B2G2G2
A2A2A2G2 | F2E2D2D2
A2A2A2A2 | B2A2G4
d6c2 | B3BB2B2 | B2d2d2
d2 | d3cc2c2 | e4d2
B2 | B3BB2B2 | B2d2d4
d3cB2B2 | d2c2B2

